img/logo.svg

<svg width="87" height="24" viewBox="0 0 87 24" fill="none" xmlns="http://www.w3.org/2000/svg">
<path d="M13.656 2.008C13.544 3.368 13.488 4.584 13.488 5.656C13.488 6.408 13.512 7.016 13.56 7.48H13.008C12.688 5.672 12.208 4.4 11.568 3.664C10.928 2.928 10.032 2.56 8.88 2.56H8.088C7.592 2.56 7.232 2.6 7.008 2.68C6.784 2.76 6.632 2.92 6.552 3.16C6.472 3.384 6.432 3.752 6.432 4.264V10.312H7.272C8.12 10.312 8.76 10 9.192 9.376C9.64 8.752 9.952 8.008 10.128 7.144H10.68C10.632 7.816 10.608 8.568 10.608 9.4V10.552C10.608 11.368 10.656 12.504 10.752 13.96H10.2C9.864 11.848 8.888 10.792 7.272 10.792H6.432V16.312C6.432 16.952 6.496 17.424 6.624 17.728C6.768 18.016 7.008 18.208 7.344 18.304C7.696 18.4 8.248 18.456 9 18.472V19C7.032 18.952 5.568 18.928 4.608 18.928C3.808 18.928 2.8 18.944 1.584 18.976L0.816 19V18.52C1.344 18.488 1.728 18.424 1.968 18.328C2.224 18.232 2.392 18.048 2.472 17.776C2.568 17.504 2.616 17.064 2.616 16.456V4.552C2.616 3.944 2.568 3.504 2.472 3.232C2.392 2.96 2.224 2.776 1.968 2.68C1.728 2.584 1.344 2.52 0.816 2.488V2.008C2.544 2.056 5.152 2.08 8.64 2.08C10.992 2.08 12.664 2.056 13.656 2.008ZM23.0351 6.256C23.7551 6.256 24.2991 6.472 24.6671 6.904C25.0351 7.336 25.2191 7.856 25.2191 8.464C25.2191 9.056 25.0431 9.544 24.6911 9.928C24.3551 10.296 23.9071 10.48 23.3471 10.48C22.8031 10.48 22.3711 10.344 22.0511 10.072C21.7311 9.784 21.5711 9.408 21.5711 8.944C21.5711 8.176 21.9231 7.552 22.6271 7.072C22.5631 7.056 22.4671 7.048 22.3391 7.048C22.1791 7.048 22.0511 7.064 21.9551 7.096C21.3471 7.192 20.8271 7.56 20.3951 8.2C19.9791 8.84 19.7711 9.496 19.7711 10.168V16.528C19.7711 17.264 19.9471 17.776 20.2991 18.064C20.6671 18.352 21.2431 18.496 22.0271 18.496V19C21.8031 19 21.6191 18.992 21.4751 18.976C19.8431 18.928 18.7551 18.904 18.2111 18.904C17.7791 18.904 16.7951 18.928 15.2591 18.976C15.1311 18.992 14.9711 19 14.7791 19V18.496C15.3551 18.496 15.7551 18.376 15.9791 18.136C16.2031 17.88 16.3151 17.424 16.3151 16.768V9.208C16.3151 8.472 16.2031 7.936 15.9791 7.6C15.7551 7.264 15.3551 7.096 14.7791 7.096V6.592C15.2911 6.64 15.7871 6.664 16.2671 6.664C17.6911 6.664 18.8591 6.552 19.7711 6.328V8.56C20.0751 7.872 20.5151 7.32 21.0911 6.904C21.6671 6.472 22.3151 6.256 23.0351 6.256ZM29.1023 0.399999C29.7743 0.399999 30.3023 0.567999 30.6863 0.904C31.0863 1.224 31.2863 1.672 31.2863 2.248C31.2863 2.824 31.0863 3.28 30.6863 3.616C30.3023 3.936 29.7743 4.096 29.1023 4.096C28.4303 4.096 27.8943 3.936 27.4943 3.616C27.1103 3.28 26.9183 2.824 26.9183 2.248C26.9183 1.672 27.1103 1.224 27.4943 0.904C27.8943 0.567999 28.4303 0.399999 29.1023 0.399999ZM30.9743 16.768C30.9743 17.424 31.0863 17.88 31.3103 18.136C31.5503 18.376 31.9503 18.496 32.5103 18.496V19C30.9103 18.936 29.8463 18.904 29.3183 18.904C28.8223 18.904 27.7102 18.936 25.9823 19V18.496C26.5583 18.496 26.9583 18.376 27.1823 18.136C27.4063 17.88 27.5183 17.424 27.5183 16.768V9.208C27.5183 8.472 27.4063 7.936 27.1823 7.6C26.9583 7.264 26.5583 7.096 25.9823 7.096V6.592C26.4943 6.64 26.9903 6.664 27.4703 6.664C28.8943 6.664 30.0623 6.552 30.9743 6.328V16.768ZM38.3046 6.256C38.9126 6.256 39.4726 6.336 39.9846 6.496C40.4966 6.64 40.8886 6.808 41.1606 7C41.3206 7.112 41.4646 7.168 41.5926 7.168C41.7366 7.168 41.8566 7.096 41.9526 6.952C42.0646 6.792 42.1366 6.568 42.1686 6.28H42.6726C42.6086 7.096 42.5766 8.504 42.5766 10.504H42.0726C41.9286 9.448 41.6086 8.568 41.1126 7.864C40.6326 7.144 39.9286 6.784 39.0006 6.784C38.5206 6.784 38.1206 6.92 37.8006 7.192C37.4966 7.464 37.3446 7.84 37.3446 8.32C37.3446 8.864 37.5286 9.336 37.8966 9.736C38.2646 10.12 38.8406 10.592 39.6246 11.152L40.3206 11.656C41.2966 12.392 42.0166 13.048 42.4806 13.624C42.9446 14.2 43.1766 14.92 43.1766 15.784C43.1766 16.488 42.9686 17.112 42.5526 17.656C42.1526 18.2 41.6086 18.616 40.9206 18.904C40.2326 19.192 39.4726 19.336 38.6406 19.336C37.7606 19.336 37.0086 19.168 36.3846 18.832C35.8726 18.576 35.5046 18.408 35.2806 18.328C35.1206 18.28 34.9766 18.336 34.8486 18.496C34.7366 18.64 34.6486 18.864 34.5846 19.168H34.0806C34.1446 18.256 34.1766 16.656 34.1766 14.368H34.6806C35.0006 17.312 36.0806 18.784 37.9206 18.784C38.3846 18.784 38.7766 18.648 39.0966 18.376C39.4326 18.088 39.6006 17.656 39.6006 17.08C39.6006 16.632 39.4966 16.232 39.2886 15.88C39.0966 15.528 38.8486 15.216 38.5446 14.944C38.2406 14.672 37.7846 14.296 37.1766 13.816C36.4566 13.24 35.9046 12.776 35.5206 12.424C35.1526 12.072 34.8326 11.656 34.5606 11.176C34.3046 10.696 34.1766 10.16 34.1766 9.568C34.1766 8.544 34.5766 7.736 35.3766 7.144C36.1766 6.552 37.1526 6.256 38.3046 6.256ZM53.2545 6.256C54.0865 6.256 54.8225 6.48 55.4625 6.928C56.1185 7.376 56.6305 8.048 56.9985 8.944C57.3665 9.84 57.5505 10.936 57.5505 12.232C57.5505 14.52 57.0465 16.28 56.0385 17.512C55.0465 18.728 53.6945 19.336 51.9825 19.336C51.5025 19.336 51.0465 19.272 50.6145 19.144C50.1985 19.016 49.8385 18.824 49.5345 18.568V20.968C49.5345 21.672 49.7105 22.16 50.0625 22.432C50.4145 22.704 50.9585 22.84 51.6945 22.84V23.344L51.0465 23.32C49.2705 23.272 48.1425 23.248 47.6625 23.248C47.1825 23.248 46.1745 23.28 44.6385 23.344V22.84C45.1665 22.84 45.5345 22.72 45.7425 22.48C45.9665 22.256 46.0785 21.832 46.0785 21.208V9.208C46.0785 8.472 45.9585 7.936 45.7185 7.6C45.4945 7.264 45.1025 7.096 44.5425 7.096V6.592C45.0545 6.64 45.5505 6.664 46.0305 6.664C47.4225 6.664 48.5905 6.552 49.5345 6.328V8.536C49.8705 7.8 50.3585 7.24 50.9985 6.856C51.6385 6.456 52.3905 6.256 53.2545 6.256ZM51.0465 18.688C52.0705 18.688 52.8065 18.184 53.2545 17.176C53.7025 16.152 53.9265 14.664 53.9265 12.712C53.9265 10.76 53.7425 9.368 53.3745 8.536C53.0225 7.704 52.5105 7.288 51.8385 7.288C51.2945 7.288 50.8065 7.472 50.3745 7.84C49.9585 8.208 49.6785 8.72 49.5345 9.376V18.04C49.9185 18.472 50.4225 18.688 51.0465 18.688ZM66.0851 17.368C67.3971 17.368 68.4531 16.728 69.2531 15.448L69.6851 15.592C69.3651 16.632 68.7891 17.52 67.9571 18.256C67.1411 18.976 66.1171 19.336 64.8851 19.336C63.1891 19.336 61.8371 18.8 60.8291 17.728C59.8371 16.64 59.3411 15.04 59.3411 12.928C59.3411 10.768 59.8771 9.12 60.9491 7.984C62.0211 6.832 63.4451 6.256 65.2211 6.256C68.2291 6.256 69.7331 8.032 69.7331 11.584H62.9891C62.9731 11.824 62.9651 12.2 62.9651 12.712C62.9651 13.768 63.1091 14.648 63.3971 15.352C63.7011 16.056 64.0851 16.568 64.5491 16.888C65.0291 17.208 65.5411 17.368 66.0851 17.368ZM65.0771 6.76C64.5011 6.76 64.0211 7.12 63.6371 7.84C63.2691 8.544 63.0371 9.64 62.9411 11.128H66.7091C66.7411 9.864 66.6131 8.824 66.3251 8.008C66.0531 7.176 65.6371 6.76 65.0771 6.76ZM75.8749 6.256C76.4829 6.256 77.0429 6.336 77.5549 6.496C78.0669 6.64 78.4589 6.808 78.7309 7C78.8909 7.112 79.0349 7.168 79.1629 7.168C79.3069 7.168 79.4269 7.096 79.5229 6.952C79.6349 6.792 79.7069 6.568 79.7389 6.28H80.2429C80.1789 7.096 80.1469 8.504 80.1469 10.504H79.6429C79.4989 9.448 79.1789 8.568 78.6829 7.864C78.2029 7.144 77.4989 6.784 76.5709 6.784C76.0909 6.784 75.6909 6.92 75.3709 7.192C75.0669 7.464 74.9149 7.84 74.9149 8.32C74.9149 8.864 75.0989 9.336 75.4669 9.736C75.8349 10.12 76.4109 10.592 77.1949 11.152L77.8909 11.656C78.8669 12.392 79.5869 13.048 80.0509 13.624C80.5149 14.2 80.7469 14.92 80.7469 15.784C80.7469 16.488 80.5389 17.112 80.1229 17.656C79.7229 18.2 79.1789 18.616 78.4909 18.904C77.8029 19.192 77.0429 19.336 76.2109 19.336C75.3309 19.336 74.5789 19.168 73.9549 18.832C73.4429 18.576 73.0749 18.408 72.8509 18.328C72.6909 18.28 72.5469 18.336 72.4189 18.496C72.3069 18.64 72.2189 18.864 72.1549 19.168H71.6509C71.7149 18.256 71.7469 16.656 71.7469 14.368H72.2509C72.5709 17.312 73.6509 18.784 75.4909 18.784C75.9549 18.784 76.3469 18.648 76.6669 18.376C77.0029 18.088 77.1709 17.656 77.1709 17.08C77.1709 16.632 77.0669 16.232 76.8589 15.88C76.6669 15.528 76.4189 15.216 76.1149 14.944C75.8109 14.672 75.3549 14.296 74.7469 13.816C74.0269 13.24 73.4749 12.776 73.0909 12.424C72.7229 12.072 72.4029 11.656 72.1309 11.176C71.8749 10.696 71.7469 10.16 71.7469 9.568C71.7469 8.544 72.1469 7.736 72.9469 7.144C73.7469 6.552 74.7229 6.256 75.8749 6.256ZM84.8728 15.64C85.4968 15.64 85.9928 15.808 86.3608 16.144C86.7288 16.464 86.9128 16.912 86.9128 17.488C86.9128 18.064 86.7288 18.52 86.3608 18.856C85.9928 19.176 85.4968 19.336 84.8728 19.336C84.2488 19.336 83.7528 19.176 83.3848 18.856C83.0168 18.52 82.8328 18.064 82.8328 17.488C82.8328 16.912 83.0168 16.464 83.3848 16.144C83.7528 15.808 84.2488 15.64 84.8728 15.64Z" fill="#10375C"/>
</svg>

<svg width="87" height="24" fill="none" xmlns="http://www.w3.org/2000/svg"><path d="M13.656 2.008a44.926 44.926 0 00-.168 3.648c0 .752.024 1.36.072 1.824h-.552c-.32-1.808-.8-3.08-1.44-3.816-.64-.736-1.536-1.104-2.688-1.104h-.792c-.496 0-.856.04-1.08.12a.72.72 0 00-.456.48c-.08.224-.12.592-.12 1.104v6.048h.84c.848 0 1.488-.312 1.92-.936.448-.624.76-1.368.936-2.232h.552a31.916 31.916 0 00-.072 2.256v1.152c0 .816.048 1.952.144 3.408H10.2c-.336-2.112-1.312-3.168-2.928-3.168h-.84v5.52c0 .64.064 1.112.192 1.416.144.288.384.48.72.576.352.096.904.152 1.656.168V19a198.31 198.31 0 00-4.392-.072c-.8 0-1.808.016-3.024.048L.816 19v-.48c.528-.032.912-.096 1.152-.192a.796.796 0 00.504-.552c.096-.272.144-.712.144-1.32V4.552c0-.608-.048-1.048-.144-1.32a.796.796 0 00-.504-.552c-.24-.096-.624-.16-1.152-.192v-.48c1.728.048 4.336.072 7.824.072 2.352 0 4.024-.024 5.016-.072zm9.38 4.248c.72 0 1.263.216 1.631.648.368.432.552.952.552 1.56 0 .592-.176 1.08-.528 1.464-.336.368-.784.552-1.344.552-.544 0-.976-.136-1.296-.408-.32-.288-.48-.664-.48-1.128 0-.768.352-1.392 1.056-1.872a1.28 1.28 0 00-.288-.024c-.16 0-.288.016-.384.048-.608.096-1.128.464-1.56 1.104-.416.64-.624 1.296-.624 1.968v6.36c0 .736.176 1.248.528 1.536.368.288.944.432 1.728.432V19c-.224 0-.408-.008-.552-.024-1.632-.048-2.72-.072-3.264-.072-.432 0-1.416.024-2.952.072a3.98 3.98 0 01-.48.024v-.504c.576 0 .976-.12 1.2-.36.224-.256.336-.712.336-1.368v-7.56c0-.736-.112-1.272-.336-1.608-.224-.336-.624-.504-1.2-.504v-.504c.512.048 1.008.072 1.488.072 1.424 0 2.592-.112 3.504-.336V8.56a3.982 3.982 0 011.32-1.656 3.16 3.16 0 011.944-.648zM29.101.4c.672 0 1.2.168 1.584.504.4.32.6.768.6 1.344 0 .576-.2 1.032-.6 1.368-.384.32-.912.48-1.584.48s-1.208-.16-1.608-.48c-.384-.336-.576-.792-.576-1.368 0-.576.192-1.024.576-1.344.4-.336.936-.504 1.608-.504zm1.872 16.368c0 .656.112 1.112.336 1.368.24.24.64.36 1.2.36V19c-1.6-.064-2.664-.096-3.192-.096-.496 0-1.608.032-3.336.096v-.504c.576 0 .976-.12 1.2-.36.224-.256.336-.712.336-1.368v-7.56c0-.736-.112-1.272-.336-1.608-.224-.336-.624-.504-1.2-.504v-.504c.512.048 1.008.072 1.488.072 1.424 0 2.592-.112 3.504-.336v10.44zm7.33-10.512a5.6 5.6 0 011.68.24c.513.144.905.312 1.177.504.16.112.304.168.432.168.144 0 .264-.072.36-.216.112-.16.184-.384.216-.672h.504c-.064.816-.096 2.224-.096 4.224h-.504c-.144-1.056-.464-1.936-.96-2.64-.48-.72-1.184-1.08-2.112-1.08-.48 0-.88.136-1.2.408-.304.272-.456.648-.456 1.128 0 .544.184 1.016.552 1.416.368.384.944.856 1.728 1.416l.696.504c.976.736 1.696 1.392 2.16 1.968.464.576.696 1.296.696 2.16 0 .704-.208 1.328-.624 1.872-.4.544-.944.96-1.632 1.248-.688.288-1.448.432-2.28.432-.88 0-1.632-.168-2.256-.504-.512-.256-.88-.424-1.104-.504-.16-.048-.304.008-.432.168-.112.144-.2.368-.264.672h-.504c.064-.912.096-2.512.096-4.8h.504c.32 2.944 1.4 4.416 3.24 4.416.464 0 .856-.136 1.176-.408.336-.288.504-.72.504-1.296 0-.448-.104-.848-.312-1.2a3.493 3.493 0 00-.744-.936c-.304-.272-.76-.648-1.368-1.128a34.209 34.209 0 01-1.656-1.392 5.388 5.388 0 01-.96-1.248 3.363 3.363 0 01-.384-1.608c0-1.024.4-1.832 1.2-2.424.8-.592 1.776-.888 2.928-.888zm14.95 0c.833 0 1.569.224 2.209.672.655.448 1.167 1.12 1.535 2.016.369.896.553 1.992.553 3.288 0 2.288-.505 4.048-1.513 5.28-.991 1.216-2.343 1.824-4.055 1.824-.48 0-.936-.064-1.368-.192a3.044 3.044 0 01-1.08-.576v2.4c0 .704.176 1.192.528 1.464.351.272.895.408 1.631.408v.504l-.648-.024a171.574 171.574 0 00-3.383-.072c-.48 0-1.488.032-3.024.096v-.504c.527 0 .895-.12 1.103-.36.225-.224.337-.648.337-1.272v-12c0-.736-.12-1.272-.36-1.608-.224-.336-.617-.504-1.177-.504v-.504c.512.048 1.008.072 1.489.072 1.392 0 2.56-.112 3.504-.336v2.208c.336-.736.824-1.296 1.464-1.68.64-.4 1.392-.6 2.255-.6zm-2.207 12.432c1.024 0 1.76-.504 2.208-1.512.447-1.024.671-2.512.671-4.464 0-1.952-.184-3.344-.552-4.176-.352-.832-.864-1.248-1.535-1.248-.544 0-1.032.184-1.465.552-.416.368-.696.88-.84 1.536v8.664c.385.432.889.648 1.513.648zm15.038-1.32c1.312 0 2.368-.64 3.168-1.92l.432.144a5.76 5.76 0 01-1.728 2.664c-.816.72-1.84 1.08-3.072 1.08-1.696 0-3.048-.536-4.056-1.608-.992-1.088-1.488-2.688-1.488-4.8 0-2.16.536-3.808 1.608-4.944 1.072-1.152 2.496-1.728 4.272-1.728 3.008 0 4.512 1.776 4.512 5.328H62.99c-.016.24-.024.616-.024 1.128 0 1.056.144 1.936.432 2.64.304.704.688 1.216 1.152 1.536.48.32.992.48 1.536.48zM65.077 6.76c-.576 0-1.056.36-1.44 1.08-.368.704-.6 1.8-.696 3.288h3.768c.032-1.264-.096-2.304-.384-3.12-.272-.832-.688-1.248-1.248-1.248zm10.798-.504c.608 0 1.168.08 1.68.24.512.144.904.312 1.176.504.16.112.304.168.432.168.144 0 .264-.072.36-.216.112-.16.184-.384.216-.672h.504c-.064.816-.096 2.224-.096 4.224h-.504c-.144-1.056-.464-1.936-.96-2.64-.48-.72-1.184-1.08-2.112-1.08-.48 0-.88.136-1.2.408-.304.272-.456.648-.456 1.128 0 .544.184 1.016.552 1.416.368.384.944.856 1.728 1.416l.696.504c.976.736 1.696 1.392 2.16 1.968.464.576.696 1.296.696 2.16 0 .704-.208 1.328-.624 1.872-.4.544-.944.96-1.632 1.248-.688.288-1.448.432-2.28.432-.88 0-1.632-.168-2.256-.504-.512-.256-.88-.424-1.104-.504-.16-.048-.304.008-.432.168-.112.144-.2.368-.264.672h-.504c.064-.912.096-2.512.096-4.8h.504c.32 2.944 1.4 4.416 3.24 4.416.464 0 .856-.136 1.176-.408.336-.288.504-.72.504-1.296 0-.448-.104-.848-.312-1.2a3.493 3.493 0 00-.744-.936c-.304-.272-.76-.648-1.368-1.128a34.209 34.209 0 01-1.656-1.392 5.388 5.388 0 01-.96-1.248 3.363 3.363 0 01-.384-1.608c0-1.024.4-1.832 1.2-2.424.8-.592 1.776-.888 2.928-.888zm8.998 9.384c.624 0 1.12.168 1.488.504.368.32.552.768.552 1.344 0 .576-.184 1.032-.552 1.368-.368.32-.864.48-1.488.48s-1.12-.16-1.488-.48c-.368-.336-.552-.792-.552-1.368 0-.576.184-1.024.552-1.344.368-.336.864-.504 1.488-.504z" fill="#10375C"/></svg>
